svgs/samsung_reminder.svg

<svg width="192" height="192" viewBox="0 0 192 192" fill="none" xmlns="http://www.w3.org/2000/svg">
<path d="M94.9203 22C88.3614 22 83.0445 27.3066 83.0445 33.8528V37.2872C63.71 42.8839 49.5763 60.6909 49.5763 81.7926V104.343C41.3823 111.373 34.8076 120.23 30.4871 130.281H161.513C157.192 120.23 150.618 111.373 142.424 104.343V81.7926C142.424 59.9129 127.229 41.5755 106.796 36.7185V33.8528C106.796 27.3066 101.479 22 94.9203 22Z" stroke="black" stroke-width="12" stroke-linejoin="round"/>
<path d="M94.96 176C104.149 176 111.598 168.551 111.598 159.362C111.598 150.173 104.149 142.724 94.96 142.724C85.7709 142.724 78.3218 150.173 78.3218 159.362C78.3218 168.551 85.7709 176 94.96 176Z" fill="black"/>
</svg>

<svg width="192" height="192" viewBox="0 0 192 192" fill="none" xmlns="http://www.w3.org/2000/svg"><path d="M94.92 22c-6.559 0-11.876 5.307-11.876 11.853v3.434C63.71 42.884 49.576 60.691 49.576 81.793v22.55a71.327 71.327 0 0 0-19.089 25.938h131.026a71.333 71.333 0 0 0-19.089-25.938v-22.55c0-21.88-15.195-40.218-35.628-45.075v-2.865c0-6.546-5.317-11.853-11.876-11.853Z" stroke="#000" stroke-width="12" stroke-linejoin="round"/><path d="M94.96 176c9.189 0 16.638-7.449 16.638-16.638 0-9.189-7.449-16.638-16.638-16.638-9.19 0-16.638 7.449-16.638 16.638 0 9.189 7.449 16.638 16.638 16.638Z" fill="#000"/></svg>
